X: 24033
T: London
R: jig
M: 6/8
K: Adorian
|:cBA Bcd|ecA AGE|~G3 ~A3|~B3 GAB|
cBA Bcd|ecA AGE|~G3 AGE|GED D3:|
|:~g3 efg|age edB|~g3 efg|1 age ede|
~g3 efg|age edB|cBA Bed|BAG A(3Bcd:|
[2 age ega|bag agf|gfg edB|cBA Bed|BAG A3||

